synths/sGOLD.svg

<svg width="480" height="480" viewBox="0 0 480 480" fill="none" xmlns="http://www.w3.org/2000/svg">
<circle cx="240" cy="240" r="240" fill="url(#paint0_linear)"/>
<mask id="mask0" mask-type="alpha" maskUnits="userSpaceOnUse" x="0" y="0" width="480" height="480">
<circle cx="240" cy="240" r="240" fill="url(#paint1_linear)"/>
</mask>
<g mask="url(#mask0)">
<path fill-rule="evenodd" clip-rule="evenodd" d="M123.924 146.839L138.76 165H173.312L196.192 137.076L174.636 110.748C156.805 90.694 136.027 81 112.011 81H12V138.71H106.428C113.355 138.71 119.293 141.538 123.848 146.752L123.924 146.839ZM179.963 106.205L205.24 137.078L176.626 172H135.439L118.576 151.357C115.289 147.595 111.243 145.71 106.428 145.71H7.95094C7.07626 145.71 6.36061 145.433 5.82167 144.879C5.27389 144.334 5 143.717 5 143.056V76.6539C5 75.9927 5.27389 75.385 5.82167 74.831C6.36061 74.277 7.07626 74 7.95094 74H112.011C138.27 74 160.923 84.7408 179.963 106.205ZM123.852 332.909L123.701 333.071C119.042 338.081 113.205 340.951 106.428 340.951H12.3269V399H111.685C135.94 399 156.82 389.299 174.636 369.252L219.1 315H138.518L123.852 332.909ZM135.203 308H233.888L179.963 373.795C160.923 395.268 138.164 406 111.685 406H7.95094C7.07626 406 6.41363 405.723 5.9807 405.169C5.53894 404.615 5.3269 403.9 5.3269 403.007V336.605C5.3269 335.943 5.53894 335.336 5.9807 334.782C6.41363 334.228 7.07626 333.951 7.95094 333.951H106.428C111.022 333.951 115.068 332.074 118.576 328.303L135.203 308ZM362.153 328.643C365.439 332.19 369.371 333.96 373.974 333.96H472.451C473.325 333.96 473.979 334.237 474.421 334.791C474.854 335.345 475.075 336.069 475.075 336.944V403.346C475.075 404.007 474.854 404.624 474.421 405.169C473.979 405.723 473.325 406 472.451 406H368.717C342.238 406 319.585 395.268 300.766 373.795L246.848 308H345.245L362.153 328.643ZM341.93 315H261.635L306.106 369.268C323.696 389.299 344.46 399 368.717 399H468.075V340.96H373.974C367.312 340.96 361.552 338.295 357.018 333.4L356.872 333.244L341.93 315ZM361.826 151.357C365.112 147.595 369.159 145.71 373.974 145.71H472.451C473.325 145.71 473.979 145.433 474.421 144.879C474.854 144.334 475.075 143.717 475.075 143.056V76.6539C475.075 75.7693 474.854 75.108 474.421 74.6612C473.979 74.2234 473.325 74 472.451 74H368.717C342.238 74 319.479 84.6246 300.439 105.874L246.427 172H344.868L361.826 151.357ZM341.559 165L356.484 146.832L356.554 146.752C361.109 141.538 367.047 138.71 373.974 138.71H468.075V81H368.717C344.443 81 323.562 90.6107 305.758 110.428L261.183 165H341.559Z" fill="#00D1FF"/>
</g>
<path d="M81.4606 275.304C73.4606 275.304 66.5166 273.8 60.6286 270.792C54.7406 267.72 50.2606 263.528 47.1886 258.216C44.1166 252.84 42.5806 246.792 42.5806 240.072C42.5806 233.032 44.4366 226.664 48.1486 220.968C51.8606 215.272 57.1726 210.792 64.0846 207.528C71.0606 204.2 79.1886 202.536 88.4686 202.536C95.7006 202.536 102.293 203.432 108.245 205.224C114.197 207.016 119.125 209.576 123.029 212.904C126.933 216.232 129.557 220.2 130.901 224.808L104.213 229.128C101.589 222.92 96.1806 219.816 87.9886 219.816C81.6526 219.816 76.8206 221.608 73.4926 225.192C70.1646 228.712 68.5006 233.576 68.5006 239.784C68.5006 245.608 70.1966 250.248 73.5886 253.704C77.0446 257.096 81.9086 258.792 88.1806 258.792C92.0846 258.792 95.4446 258.28 98.2606 257.256C101.141 256.232 103.349 254.92 104.885 253.32C106.485 251.656 107.413 249.928 107.669 248.136V248.04H85.2046V233.736H130.709V273H111.989L111.125 261.672C109.077 265.384 105.621 268.584 100.757 271.272C95.9566 273.96 89.5246 275.304 81.4606 275.304Z" fill="white"/>
<path d="M194.978 275.304C185.634 275.304 177.474 273.832 170.498 270.888C163.522 267.88 158.146 263.656 154.37 258.216C150.594 252.712 148.706 246.28 148.706 238.92C148.706 231.56 150.594 225.16 154.37 219.72C158.146 214.216 163.522 209.992 170.498 207.048C177.474 204.04 185.634 202.536 194.978 202.536C204.322 202.536 212.45 204.04 219.362 207.048C226.338 209.992 231.714 214.216 235.49 219.72C239.266 225.16 241.154 231.56 241.154 238.92C241.154 246.28 239.266 252.712 235.49 258.216C231.714 263.656 226.338 267.88 219.362 270.888C212.45 273.832 204.322 275.304 194.978 275.304ZM194.978 257.544C199.01 257.544 202.562 256.776 205.634 255.24C208.706 253.704 211.074 251.528 212.738 248.712C214.402 245.896 215.234 242.632 215.234 238.92C215.234 233.288 213.378 228.776 209.666 225.384C206.018 221.992 201.122 220.296 194.978 220.296C188.834 220.296 183.906 221.992 180.194 225.384C176.482 228.776 174.626 233.288 174.626 238.92C174.626 242.632 175.458 245.896 177.122 248.712C178.85 251.464 181.25 253.64 184.322 255.24C187.394 256.776 190.946 257.544 194.978 257.544Z" fill="white"/>
<path d="M262.191 204.84H286.767V254.184H329.775V273H262.191V204.84Z" fill="white"/>
<path d="M397.421 204.84C405.933 204.84 413.229 206.12 419.309 208.68C425.453 211.24 430.157 214.984 433.421 219.912C436.685 224.84 438.317 230.792 438.317 237.768C438.317 244.68 436.589 250.792 433.133 256.104C429.677 261.416 424.813 265.576 418.541 268.584C412.269 271.528 405.037 273 396.845 273H351.629V204.84H397.421ZM392.813 257.064C398.893 257.064 403.661 255.368 407.117 251.976C410.637 248.584 412.397 244.008 412.397 238.248C412.397 232.744 410.669 228.456 407.213 225.384C403.757 222.248 399.149 220.68 393.389 220.68H376.205V257.064H392.813Z" fill="white"/>
<defs>
<linearGradient id="paint0_linear" x1="240" y1="0" x2="240" y2="701.818" gradientUnits="userSpaceOnUse">
<stop stop-color="#08021E"/>
<stop offset="1" stop-color="#1F0777"/>
</linearGradient>
<linearGradient id="paint1_linear" x1="240" y1="0" x2="240" y2="701.818" gradientUnits="userSpaceOnUse">
<stop stop-color="#08021E"/>
<stop offset="1" stop-color="#1F0777"/>
</linearGradient>
</defs>
</svg>

<svg width="480" height="480" viewBox="0 0 480 480" fill="none" xmlns="http://www.w3.org/2000/svg"><circle cx="240" cy="240" r="240" fill="url(#paint0_linear)"/><path d="M413.332 74h-44.615c-26.479 0-49.238 10.625-68.278 31.874L246.427 172h98.441l16.957-20.643c3.287-3.762 7.334-5.647 12.149-5.647h86.795a236.19 236.19 0 00-3.128-7h-83.667c-6.927 0-12.865 2.828-17.42 8.042l-.07.08L341.559 165h-80.376l44.574-54.572C323.562 90.611 344.443 81 368.717 81h51.061a240.48 240.48 0 00-6.446-7zM66.667 406h45.017c26.479 0 49.239-10.732 68.278-32.205L233.888 308h-98.686l-16.626 20.303c-3.508 3.771-7.554 5.648-12.149 5.648H19.086a238.894 238.894 0 003.114 7h84.227c6.778 0 12.614-2.87 17.274-7.88l.151-.162L138.518 315H219.1l-44.464 54.252C156.819 389.299 135.94 399 111.684 399H60.221a240.688 240.688 0 006.446 7zm394.243-72.04h-86.936c-4.603 0-8.535-1.77-11.822-5.317L345.245 308h-98.397l53.918 65.795C319.585 395.268 342.238 406 368.717 406h44.615a239.704 239.704 0 006.446-7h-51.061c-24.257 0-45.021-9.701-62.611-29.732L261.634 315h80.296l14.942 18.244.145.156c4.535 4.895 10.294 7.56 16.957 7.56h83.821a239.708 239.708 0 003.115-7zM19.23 145.71h87.197c4.816 0 8.862 1.885 12.149 5.647L135.439 172h41.187l28.614-34.922-25.278-30.873C160.923 84.741 138.269 74 112.011 74H66.667a241.47 241.47 0 00-6.446 7h51.79c24.015 0 44.794 9.694 62.624 29.748l21.557 26.328L173.312 165H138.76l-14.836-18.161-.077-.087c-4.554-5.214-10.493-8.042-17.42-8.042H22.358a238.014 238.014 0 00-3.127 7z" fill="#00D1FF"/><path d="M81.461 275.304c-8 0-14.944-1.504-20.832-4.512-5.888-3.072-10.368-7.264-13.44-12.576-3.072-5.376-4.608-11.424-4.608-18.144 0-7.04 1.856-13.408 5.568-19.104 3.712-5.696 9.024-10.176 15.936-13.44 6.976-3.328 15.104-4.992 24.384-4.992 7.232 0 13.824.896 19.776 2.688 5.952 1.792 10.88 4.352 14.784 7.68 3.904 3.328 6.528 7.296 7.872 11.904l-26.688 4.32c-2.624-6.208-8.032-9.312-16.224-9.312-6.336 0-11.168 1.792-14.496 5.376-3.328 3.52-4.992 8.384-4.992 14.592 0 5.824 1.696 10.464 5.088 13.92 3.456 3.392 8.32 5.088 14.592 5.088 3.904 0 7.264-.512 10.08-1.536 2.88-1.024 5.088-2.336 6.624-3.936 1.6-1.664 2.528-3.392 2.784-5.184v-.096H85.205v-14.304h45.504V273h-18.72l-.864-11.328c-2.048 3.712-5.504 6.912-10.368 9.6-4.8 2.688-11.232 4.032-19.296 4.032zm113.517 0c-9.344 0-17.504-1.472-24.48-4.416-6.976-3.008-12.352-7.232-16.128-12.672-3.776-5.504-5.664-11.936-5.664-19.296 0-7.36 1.888-13.76 5.664-19.2 3.776-5.504 9.152-9.728 16.128-12.672 6.976-3.008 15.136-4.512 24.48-4.512 9.344 0 17.472 1.504 24.384 4.512 6.976 2.944 12.352 7.168 16.128 12.672 3.776 5.44 5.664 11.84 5.664 19.2 0 7.36-1.888 13.792-5.664 19.296-3.776 5.44-9.152 9.664-16.128 12.672-6.912 2.944-15.04 4.416-24.384 4.416zm0-17.76c4.032 0 7.584-.768 10.656-2.304 3.072-1.536 5.44-3.712 7.104-6.528 1.664-2.816 2.496-6.08 2.496-9.792 0-5.632-1.856-10.144-5.568-13.536-3.648-3.392-8.544-5.088-14.688-5.088s-11.072 1.696-14.784 5.088c-3.712 3.392-5.568 7.904-5.568 13.536 0 3.712.832 6.976 2.496 9.792 1.728 2.752 4.128 4.928 7.2 6.528 3.072 1.536 6.624 2.304 10.656 2.304zm67.214-52.704h24.576v49.344h43.008V273h-67.584v-68.16zm135.229 0c8.512 0 15.808 1.28 21.888 3.84 6.144 2.56 10.848 6.304 14.112 11.232 3.264 4.928 4.896 10.88 4.896 17.856 0 6.912-1.728 13.024-5.184 18.336-3.456 5.312-8.32 9.472-14.592 12.48-6.272 2.944-13.504 4.416-21.696 4.416h-45.216v-68.16h45.792zm-4.608 52.224c6.08 0 10.848-1.696 14.304-5.088 3.52-3.392 5.28-7.968 5.28-13.728 0-5.504-1.728-9.792-5.184-12.864-3.456-3.136-8.064-4.704-13.824-4.704h-17.184v36.384h16.608z" fill="#fff"/><defs><linearGradient id="paint0_linear" x1="240" y1="0" x2="240" y2="701.818" gradientUnits="userSpaceOnUse"><stop stop-color="#08021E"/><stop offset="1" stop-color="#1F0777"/></linearGradient></defs></svg>
